X: 4
T: Lochiel House March, The
Z: ceolachan
S: https://thesession.org/tunes/6894#setting18478
R: barndance
M: 4/4
L: 1/8
K: Dmaj
|: A2 |d2 d>e d2 A2 | B>cdB A2 G>F | G2 B2 A2 d>e | f2 e>^d e2 (3ABc |
d2- d>e d2 A2 | B2 d>B A2 (3AGF | E>FGA (3Bcd de | f2 d>c d2 :|
|: f2 |a2 a>b a2 a/g/f/a/ | g>fga g2 g/f/e/d/ | f2 e>d a2 g/f/e/d/ | f2 e>^d e2 e/f/g/b/ |
a>^g ab ab/a/ gf | g2- g>a g2 f>e | f2 ed A2 d>c |[1 d2 d>d d2 :|[2 d2 D>D D2 |]
